X: 183
T: Nai niudu ge
%%abc-version 2.0
%%abcx-abcm2ps-target-version 5.9.1 (29 Sep 2008)
%%abc-creator hum2abc beta
%%abcx-conversion-date 2013/10/02 07:44:28
%%abc-edited-by Helmut Schaffrath
%%humdrum-veritas 2932876297
%%humdrum-veritas-data 2521844522
%%continueall 1
%%barnumbers 0
L: 1/8
M: 3/4
K: F
z2F G [I:setbarnb 1]| 
A4- | 
A4 | 
A A/ c/ d d/ c/ | 
A3F | 
G> A F D/ C/ | 
DD3- | 
D2D F | 
G4 | 
A3G | 
G> A F D/ C/ | 
DD3- | 
D4 | 
z2F G | 
A4- | 
A4 | 
A A/ c/ d d/ c/ | 
A3F | 
G> A F D/ C/ | 
DD3- | 
D2D F | 
G4 | 
A3G | 
G> A F D/ C/ | 
DD3- | 
D4 | 
z2F G | 
A4- | 
A4 | 
A A/ c/ d d/ c/ | 
A3F | 
G> A F D/ C/ | 
DD3- | 
D2D F | 
G4 | 
A3G | 
G> A F D/ C/ | 
DD3- | 
D2D F | 
G4 | 
A3G | 
G> A F D/ C/ | 
DD3- | 
D4 |]  



